X: 100
T:Epsom New Wells (The Pursuit)
M:2/2
L:1/8
K:G
%%text use two A sections for The Pursuit
G2|"Em"E3 F G2 B2|"D"d3 e dedc|"G"B2 d2 g2 B2|"Am"A4 E2 E2|
"G"G3A B2 d2|"C"g3 a g2 e2|"C"g3 a gage | "G"d2 B4:|
|:ba|"Em"g3 a g2 ba|"C"g3 a gage|"G"dedB dedB|"Am"A2 e4 f2|
"C"g3 a g2 fe|"G"d3 e d2cd|"Em"G3 A B2 e2|"Bm"d2 B4:|

